X: 400
T: Da jinqian diao
L: 1/8
M: 2/4
K: F
A E D C [I:setbarnb 1]| 
A E D C | 
A> A C/ D/ E/ G/ | 
D4 | 
c> d F d | 
g e d/ d c/ | 
A A/ G/ A c | 
d4 | 
D E D C | 
G E D C | 
A2C/ D/ E/ G/ | 
D4 | 
G G A A/ c/ | 
G G A d/ c/ | 
G3A/ c/ | 
G> A F E/ D/ | 
C> F D C/ D/ | 
F3E | 
D> F C/ D/ E/ G/ | 
D4 | 
F> D C/ D/ E | 
D4 | 
A< A C E | 
D/ F C< D C/ | 
D D f3/ f/ | 
c e d/ f/ c | 
d4 | 
A4 | 
f> A f e/ d/ | 
c dF2 | 
a> e d c | 
A A f d/ c/ | 
G G e d/ c/ | 
G G c3/ A/ | 
G F G/ F/ G/ A/ | 
c4 | 
A> c A/ c/ A/ G/ | 
F D D C | 
F4 | 
D E D C | 
F CD2 | 
c/ d/ F d c | 
A cd2 | 
F E D C | 
A, CD2 | 
G A G A | 
G2G A | 
c cF2 | 
D D/ C/D2 | 
f fd2 | 
c/ d/ e/ c/d2 | 
f fd2 | 
a2z2 | 
f> g e d | 
c> df2 | 
g e d c | 
A A c/ d/ B/ A/ | 
G G c B/ A/ | 
G G d c/ A/ | 
G F G/ F/ G/ A/ | 
c> d c/ d/ c | 
d> c A G/ A/ | 
F E/ D< d c/ | 
F4 |]

@@@ Tune index: 9274
